X:13182
T:Pirate,The,2nd part. JNu.31
M:6/8
Q:110
S:James Nuttall MS,c1830?,Rossendale,East Lancs.
O:England
A:East Lancashire
Z:Chris Partington
K:A
"secundo"c|e2c ABc|d2d fed|cdc cBA|AGG G2c|!
e2c ABc|d2d fed|cdc BAG|A2AA2::!
A|B3GAB|A2cE2A|B3GAB|A2cE2E|!
E3D3|C3B,3|EDE CDE|C2CC2:|]


